remix/Document/bill-line.svg

<svg viewBox="0 0 24 24" fill="currentColor" xmlns="http://www.w3.org/2000/svg"><path d="M20 22H4C3.44772 22 3 21.5523 3 21V3C3 2.44772 3.44772 2 4 2H20C20.5523 2 21 2.44772 21 3V21C21 21.5523 20.5523 22 20 22ZM19 20V4H5V20H19ZM8 9H16V11H8V9ZM8 13H16V15H8V13Z"/></svg>

<svg viewBox="0 0 24 24" xmlns="http://www.w3.org/2000/svg"><path fill="none" d="M0 0h24v24H0Z"/><path d="M20 22H4v0c-.56 0-1-.45-1-1V3v0c0-.56.44-1 1-1h16v0c.55 0 1 .44 1 1v18 0c0 .55-.45 1-1 1Zm-1-2V4H5v16h14ZM8 9h8v2H8V9Zm0 4h8v2H8v-2Z"/></svg>
